core/img/filetypes/folder-external.svg

<?xml version="1.0" encoding="UTF-8" standalone="no"?>
<svg xmlns="http://www.w3.org/2000/svg" height="16" width="16" version="1.0">
 <path d="m1.4609 2c-0.2505 0-0.4609 0.2104-0.4609 0.4609v11.078c0 0.259 0.2021 0.461 0.4609 0.461h13.078c0.259 0 0.461-0.202 0.461-0.461v-9.0761c0-0.2504-0.21-0.4629-0.461-0.4629h-6.539l-2-2h-4.5391zm6.5157 3.793h3.5704v3.3847l-1.192-1.1269-1.7847 1.6914-1.1894-1.1289 1.7851-1.6914-1.1894-1.1289zm-2.3809 0.5644h1.7852l0.5957 0.5645h-2.3809v4.5141h4.7593v-2.2583l0.596 0.5645v1.6938c0 0.312-0.266 0.564-0.596 0.564h-4.7593c-0.3297 0-0.5957-0.252-0.5957-0.564v-4.5141c0-0.3126 0.266-0.5645 0.5957-0.5645z" fill-rule="evenodd" fill="#0082c9"/>
</svg>

<svg xmlns="http://www.w3.org/2000/svg" height="16" width="16" version="1"><path d="M1.46 2c-.25 0-.46.21-.46.46v11.08c0 .258.202.46.46.46h13.08c.258 0 .46-.202.46-.46V4.462c0-.25-.21-.463-.46-.463H8L6 2H1.46zm6.517 3.793h3.57v3.385L10.355 8.05 8.57 9.743l-1.19-1.13 1.786-1.69-1.19-1.13zm-2.38.564H7.38l.597.565h-2.38v4.514h4.758V9.178l.596.564v1.694c0 .312-.265.564-.595.564h-4.76c-.33 0-.595-.252-.595-.564V6.922c0-.313.266-.565.596-.565z" fill-rule="evenodd" fill="#0082c9"/></svg>
